svgs/light/tablet-screen.svg

<svg xmlns="http://www.w3.org/2000/svg" viewBox="0 0 448 512"><!--! Font Awesome Pro 6.1.1 by @fontawesome - https://fontawesome.com License - https://fontawesome.com/license (Commercial License) Copyright 2022 Fonticons, Inc. --><path d="M384 .0001H64c-35.35 0-64 28.65-64 64v384c0 35.35 28.65 63.1 64 63.1h320c35.35 0 64-28.65 64-63.1v-384C448 28.65 419.3 .0001 384 .0001zM416 448c0 17.64-14.36 32-32 32H64c-17.64 0-32-14.36-32-32v-96h384V448zM416 320H32V64c0-17.64 14.36-32 32-32h320c17.64 0 32 14.36 32 32V320zM192 432h64c8.836 0 16-7.164 16-16c0-8.838-7.164-16-16-16H192c-8.836 0-16 7.162-16 16C176 424.8 183.2 432 192 432z"/></svg>

<svg xmlns="http://www.w3.org/2000/svg" viewBox="0 0 448 512"><!--! Font Awesome Pro 6.4.2 by @fontawesome - https://fontawesome.com License - https://fontawesome.com/license (Commercial License) Copyright 2023 Fonticons, Inc. --><path d="M384 32c17.7 0 32 14.3 32 32V320H32V64c0-17.7 14.3-32 32-32H384zm32 320v96c0 17.7-14.3 32-32 32H64c-17.7 0-32-14.3-32-32V352H416zM64 0C28.7 0 0 28.7 0 64V448c0 35.3 28.7 64 64 64H384c35.3 0 64-28.7 64-64V64c0-35.3-28.7-64-64-64H64zM176 416c0 8.8 7.2 16 16 16h64c8.8 0 16-7.2 16-16s-7.2-16-16-16H192c-8.8 0-16 7.2-16 16z"/></svg>
